X:148
T:Do Let Me Alone, Susan
M:2/4
L:1/16
Q:1/4=120
K:GMix
cc2A|\
c4 ccc2|A2 A4 F2|G4 c4|
A4 G4|E2F2 G4|c2 A4 F2|G6 GG|
C2C2 C2D2|E2E2 E2F2|G2G2 G2E2|G4 c4|
A4 G4|E2F2 G4|c2 A4 F2|G6 GG|
C2C2 C2D2|E2E2 E2F2|G2G2 G2E2|G4 c4|
A4 G4|E2F2 G4||
